X:824
T:Reel 824
M:4/4
K:Gmaj
L:1/8
D2|GBAG FDFD|GBAF GBAG|FDAD EDAD|GBAF G2dc|B2Bd GdBG|FGAB c2Bc|dBcA BGAF|G2FG G2|Bc|d2gd g2Bd|g2fg efd2|A^cAG FAeg|fdef e2ef|g2fd gdBd|gfaf gfed|egag fefa|gdcA G2|
